app/dist/common/images/sichuan-qiaoyuan-g.svg

<svg height="18" viewBox="0 0 18 18" width="18" xmlns="http://www.w3.org/2000/svg"><path d="m0 0h18v18h-18z" fill="#f0f3fa"/><path d="m9 9v-4.59a4.59 4.59 0 0 0 -4.6 4.59z" fill="#fdd100"/><path d="m9 9v4.59a4.59 4.59 0 0 1 -4.6-4.59z" fill="#261f1e"/><path d="m9 9v4.59a4.59 4.59 0 0 0 4.6-4.59z" fill="#009b4c"/><path d="m15 9a6 6 0 1 1 -12 0 6 6 0 0 1 12 0zm-.2 0a5.8 5.8 0 1 1 -11.6 0 5.8 5.8 0 0 1 11.6 0zm-1.2 0a4.59 4.59 0 1 1 -9.2 0 4.59 4.59 0 0 1 9.18 0zm-.23 0a4.36 4.36 0 1 1 -8.72 0 4.36 4.36 0 0 1 8.72 0z" fill="#f0222b" fill-rule="evenodd"/><circle cx="9" cy="9" fill="#0670b8" r="2.47"/><path d="m6.82 4.72c-.65.32-1.19.74-1.46 1.15l-.56-.37a5.43 5.43 0 0 1 4.03-1.96 5.8 5.8 0 0 1 4.34 1.93l-.5.43a5.14 5.14 0 0 0 -3.83-1.7c-.65 0-1.38.2-2.03.52z" opacity=".5"/></svg>

<!-- by TradingView --><svg width="18" height="18" viewBox="0 0 18 18" xmlns="http://www.w3.org/2000/svg"><path fill="#F0F3FA" d="M0 0h18v18H0z"/><path d="M9 9V4.41A4.59 4.59 0 0 0 4.4 9H9Z" fill="#FDD100"/><path d="M9 9v4.59A4.59 4.59 0 0 1 4.4 9H9Z" fill="#261F1E"/><path d="M9 9v4.59A4.59 4.59 0 0 0 13.6 9H9Z" fill="#009B4C"/><path fill-rule="evenodd" d="M15 9A6 6 0 1 1 3 9a6 6 0 0 1 12 0Zm-.2 0A5.8 5.8 0 1 1 3.2 9a5.8 5.8 0 0 1 11.6 0ZM13.6 9A4.59 4.59 0 1 1 4.4 9a4.59 4.59 0 0 1 9.18 0Zm-.23 0a4.36 4.36 0 1 1-8.72 0 4.36 4.36 0 0 1 8.72 0Z" fill="#F0222B"/><circle cx="9" cy="9" r="2.47" fill="#0670B8"/><path opacity=".5" d="M6.82 4.72c-.65.32-1.19.74-1.46 1.15L4.8 5.5a5.43 5.43 0 0 1 4.03-1.96 5.8 5.8 0 0 1 4.34 1.93l-.5.43a5.14 5.14 0 0 0-3.83-1.7c-.65 0-1.38.2-2.03.52Z"/></svg>
